X:14
T:Stewart Robertson's Strathspey
C:Robert Petrie
S:Petrie's Collection of Strathspey Reels and Country Dances &c., 1790
Z:Steve Wyrick , 6/4/04
N:Petrie's First Collection, page 7
L:1/8
V:1 name = "violin"
V:2 name = "bass" clef=bass middle=d transpose=-24
M:C
R:Strathspey
K:Gm
[V:1] D|G2 TB>c (d/c/d/=e/) fd|c<Af>d (c/B/A/G/) F>A|G>AB>c db/a/ g>d|c<Af>A BGG:|
[V:2] z|G2  g2   B2         b2|f2 b2   f2        z2 |g2 G2  g2    B2 |A2 d2  G2G:|
[V:1] d|Tg>bg<d B<d Tg2|Tf>af<c A<c Tf2|g>bg>d B>dG<g|f>c d/c/B/A/ B<GG>d|
[V:2] z| g2 b2  g2   b2| f2 a2  f2   a2|g2 b2  g2 b2 |a2  z2       g2 B2 |
[V:1] Tg>bg<d B<d Tgf/g/|Tf>af<c A>cf<a|bg(^f/g/a) gd (c/d/e)|(d/c/d/e/) (d/c/B/A/) BGG|]
[V:2]  G2 B2  G2   B2   | F2 A2  F2 f2 |g2  d2     B2  c2    | d2         D2        G2G|]
% The above code was written using Phil Taylor's BarFly abc reader/converter/player program.
% Other abc converters (e.g. abc2ps) may require everything after the word "bass" to be
% deleted in the V:2 header line for correct display of notes the bass clef, or require that
% the M: and K: fields be repeated directly under the V:1 header line to display the meter
% and key signature on both staffs.  Some abc MIDI players (e.g. abc2midi) will not play
% multiple-voiced abc code.  -SW
